app/images/funnel.svg

<svg xmlns="http://www.w3.org/2000/svg" fill="none" viewBox="0 0 961 1740">
  <path fill="url(#a)" fill-opacity=".2" d="M169.773 383.445C153.191 346.31 136.291 308.461 125 250h355.498v1286H436.39v-324.09c0-65.24-58.392-118.66-86.019-171.41l-.002-.01c-30.169-57.611-59.926-114.436-52.383-185.009 8.163-76.386-12.059-122.624-35.322-175.815l-.001-.002c-17.91-40.952-37.623-86.025-47.571-152.152-9.658-64.203-27.3-103.713-45.319-144.067Z"/>
  <path fill="url(#b)" fill-opacity=".2" d="M480.503 1536V250H836c-11.289 58.453-28.187 96.3-44.764 133.43l-.007.015-.003.006c-18.018 40.352-35.66 79.861-45.318 144.061-9.949 66.128-29.66 111.202-47.571 152.154-23.264 53.191-43.485 99.428-35.322 175.815 7.542 70.573-22.214 127.398-52.383 185.009l-.002.01c-27.627 52.75-86.019 106.17-86.019 171.41V1536h-44.108Z"/>
  <path fill="url(#c)" fill-opacity=".1" d="M60.515 180.556C38.103 130.311 15.261 79.1 0 0h480.497v1740H420.88v-438.5c0-88.28-78.923-160.55-116.265-231.93l-.002-.01c-40.778-77.951-80.997-154.837-70.803-250.325 11.034-103.353-16.298-165.914-47.741-237.883l-.001-.002c-24.208-55.41-50.852-116.395-64.297-205.867-13.055-86.869-36.9-140.328-61.256-194.927Z"/>
  <path fill="url(#d)" fill-opacity=".1" d="M480.504 1740 480.503 0H961c-15.258 79.089-38.097 130.297-60.504 180.535l-.01.021-.004.008c-24.353 54.597-48.198 108.055-61.252 194.919-13.447 89.473-40.089 150.459-64.298 205.869-31.443 71.969-58.775 134.53-47.742 237.883 10.195 95.488-30.024 172.374-70.802 250.325l-.003.01c-37.341 71.38-116.264 143.65-116.264 231.93V1740h-59.617Z"/>
  <defs>
    <linearGradient id="a" x1="258.364" x2="691.26" y1="775.357" y2="286.066" gradientUnits="userSpaceOnUse">
      <stop stop-color="#539BC3"/>
      <stop offset="1" stop-color="#539BC3" stop-opacity="0"/>
    </linearGradient>
    <linearGradient id="b" x1="258.364" x2="691.26" y1="775.357" y2="286.066" gradientUnits="userSpaceOnUse">
      <stop stop-color="#539BC3"/>
      <stop offset="1" stop-color="#539BC3" stop-opacity="0"/>
    </linearGradient>
    <linearGradient id="c" x1="180.257" x2="766.055" y1="710.825" y2="49.407" gradientUnits="userSpaceOnUse">
      <stop stop-color="#539BC3"/>
      <stop offset="1" stop-color="#539BC3" stop-opacity="0"/>
    </linearGradient>
    <linearGradient id="d" x1="180.257" x2="766.055" y1="710.825" y2="49.407" gradientUnits="userSpaceOnUse">
      <stop stop-color="#539BC3"/>
      <stop offset="1" stop-color="#539BC3" stop-opacity="0"/>
    </linearGradient>
  </defs>
</svg>

<svg width="961" height="1740" viewBox="0 0 961 1740" fill="none" xmlns="http://www.w3.org/2000/svg">
<path d="M169.773 383.445C153.191 346.31 136.291 308.461 125 250L480.498 250L480.498 1536L436.39 1536L436.39 1211.91C436.39 1146.67 377.998 1093.25 350.371 1040.5L350.369 1040.49C320.2 982.879 290.443 926.054 297.986 855.481C306.149 779.095 285.927 732.857 262.664 679.666L262.663 679.664C244.753 638.712 225.04 593.639 215.092 527.512C205.434 463.309 187.792 423.799 169.773 383.445Z" fill="url(#paint0_linear_2:29)" fill-opacity="0.2"/>
<path d="M480.503 1536L480.503 250L836 250C824.711 308.453 807.813 346.3 791.236 383.43L791.229 383.445L791.226 383.451C773.208 423.803 755.566 463.312 745.908 527.512C735.959 593.64 716.248 638.714 698.337 679.666C675.073 732.857 654.852 779.094 663.015 855.481C670.557 926.054 640.801 982.879 610.632 1040.49L610.63 1040.5C583.003 1093.25 524.611 1146.67 524.611 1211.91L524.611 1536L480.503 1536Z" fill="url(#paint1_linear_2:29)" fill-opacity="0.2"/>
<path d="M60.5154 180.556C38.1035 130.311 15.2608 79.0999 -7.60578e-05 -0.000105858L480.497 -0.000126861L480.497 1740L420.88 1740L420.88 1301.5C420.88 1213.22 341.957 1140.95 304.615 1069.57L304.613 1069.56C263.835 991.609 223.616 914.723 233.81 819.235C244.844 715.882 217.512 653.321 186.069 581.352L186.068 581.35C161.86 525.94 135.216 464.955 121.771 375.483C108.716 288.614 84.8702 235.155 60.5154 180.556Z" fill="url(#paint2_linear_2:29)" fill-opacity="0.1"/>
<path d="M480.504 1740L480.503 -0.000126861L961 -0.000147864C945.742 79.0889 922.903 130.297 900.496 180.535L900.486 180.556L900.482 180.564C876.129 235.161 852.284 288.619 839.23 375.483C825.783 464.956 799.141 525.942 774.932 581.352C743.489 653.321 716.157 715.882 727.19 819.235C737.385 914.723 697.166 991.609 656.388 1069.56L656.385 1069.57C619.044 1140.95 540.121 1213.22 540.121 1301.5L540.121 1740L480.504 1740Z" fill="url(#paint3_linear_2:29)" fill-opacity="0.1"/>
<defs>
<linearGradient id="paint0_linear_2:29" x1="258.364" y1="775.357" x2="691.26" y2="286.066" gradientUnits="userSpaceOnUse">
<stop stop-color="#539BC3"/>
<stop offset="1" stop-color="#539BC3" stop-opacity="0"/>
</linearGradient>
<linearGradient id="paint1_linear_2:29" x1="258.364" y1="775.357" x2="691.26" y2="286.066" gradientUnits="userSpaceOnUse">
<stop stop-color="#539BC3"/>
<stop offset="1" stop-color="#539BC3" stop-opacity="0"/>
</linearGradient>
<linearGradient id="paint2_linear_2:29" x1="180.257" y1="710.825" x2="766.055" y2="49.4074" gradientUnits="userSpaceOnUse">
<stop stop-color="#539BC3"/>
<stop offset="1" stop-color="#539BC3" stop-opacity="0"/>
</linearGradient>
<linearGradient id="paint3_linear_2:29" x1="180.257" y1="710.825" x2="766.055" y2="49.4074" gradientUnits="userSpaceOnUse">
<stop stop-color="#539BC3"/>
<stop offset="1" stop-color="#539BC3" stop-opacity="0"/>
</linearGradient>
</defs>
</svg>
